packages/icons/src/svg/check-circle.svg

<svg xmlns="http://www.w3.org/2000/svg" viewBox="0 0 16 16"><path d="M7.97622857,0.0709466667 C3.57165714,0.0709466667 0.000228571429,3.61261333 0.000228571429,7.98048 C0.000228571429,12.3483467 3.57165714,15.8900133 7.97622857,15.8900133 C12.3808,15.8900133 15.9522286,12.3483467 15.9522286,7.98048 C15.9522286,3.61261333 12.3808,0.0709466667 7.97622857,0.0709466667" class="ti-full-bg-circle"></path>
                <path d="M6.88582857,11.8691733 C6.72468571,12.0289733 6.46411429,12.0289733 6.30182857,11.8691733 L6.17268571,11.7399733 L6.17154286,11.7399733 L6.0344,11.60284 L5.42525714,10.9987733 C5.42297143,10.9965067 5.42411429,10.99424 5.42182857,10.9919733 L2.6344,8.20737333 C2.47325714,8.04644 2.47325714,7.78690667 2.6344,7.62710667 L3.51097143,6.75670667 C3.67211429,6.59690667 3.93382857,6.59690667 4.09611429,6.75670667 L6.59668571,9.25684 L11.8572571,4.04124 C12.0172571,3.88030667 12.2801143,3.88030667 12.4412571,4.04124 L13.3178286,4.91050667 C13.4801143,5.07030667 13.4801143,5.32984 13.3178286,5.49077333 L6.88582857,11.8691733 Z" class="ti-check-valid-value" ></path></svg>

<svg xmlns="http://www.w3.org/2000/svg" viewBox="0 0 16 16">
	<path d="M7.976.07C3.572.07 0 3.614 0 7.98c0 4.368 3.572 7.91 7.976 7.91 4.405 0 7.976-3.542 7.976-7.91 0-4.367-3.571-7.91-7.976-7.91" class="ti-full-bg-circle"/>
	<path d="M6.886 11.87a.416.416 0 0 1-.584 0l-.13-.13-.138-.137-.609-.604c-.002-.002 0-.005-.003-.007L2.634 8.207a.409.409 0 0 1 0-.58l.877-.87a.417.417 0 0 1 .585 0l2.5 2.5 5.261-5.216c.16-.16.423-.16.584 0l.877.87c.162.16.162.419 0 .58l-6.432 6.378z" class="ti-check-valid-value"/>
</svg>
